img/svg/about_gear.svg

<svg width="178" height="153" viewBox="0 0 178 153" fill="none" xmlns="http://www.w3.org/2000/svg">
<circle cx="60" cy="93" r="59.5" fill="#FF9900" stroke="#FF9900"/>
<path fill-rule="evenodd" clip-rule="evenodd" d="M114 47C105.163 47 98 54.1634 98 63C98 71.8366 105.163 79 114 79C122.837 79 130 71.8366 130 63C130 54.1634 122.837 47 114 47ZM96 63C96 53.0589 104.059 45 114 45C123.941 45 132 53.0589 132 63C132 72.9411 123.941 81 114 81C104.059 81 96 72.9411 96 63Z" fill="black"/>
<path fill-rule="evenodd" clip-rule="evenodd" d="M114.5 2.00526C111.752 2.00526 109.117 3.09682 107.174 5.03979C105.231 6.98277 104.139 9.61801 104.139 12.3658V13.3317L104.139 13.3357C104.131 15.3594 103.532 17.3367 102.414 19.024C101.297 20.7114 99.7104 22.0352 97.8502 22.8324C97.7254 22.8859 97.591 22.9135 97.4553 22.9135H97.2066C95.3621 23.682 93.3333 23.9022 91.3642 23.5451C89.324 23.1752 87.4414 22.2026 85.9592 20.7527L85.9513 20.7449L85.6104 20.404C84.6482 19.4407 83.5051 18.6761 82.2474 18.1547C80.9896 17.6334 79.6415 17.365 78.2799 17.365C76.9184 17.365 75.5702 17.6334 74.3125 18.1547C73.0547 18.6761 71.9121 19.4403 70.9499 20.4036L70.9491 20.4044C69.9858 21.3666 69.2216 22.5093 68.7002 23.767C68.1788 25.0247 67.9105 26.3729 67.9105 27.7345C67.9105 29.096 68.1788 30.4442 68.7002 31.7019C69.2216 32.9597 69.9858 34.1023 70.9491 35.0645L71.2982 35.4136C72.7481 36.8959 73.7207 38.7785 74.0906 40.8187C74.4586 42.8485 74.2133 44.9417 73.3863 46.8311C72.6655 48.7728 71.3799 50.4546 69.6948 51.6599C68.0012 52.8712 65.9823 53.545 63.9006 53.5937L63.8771 53.594H63.3658C60.618 53.594 57.9828 54.6856 56.0398 56.6285C54.0968 58.5715 53.0053 61.2067 53.0053 63.9545C53.0053 66.7023 54.0968 69.3376 56.0398 71.2805C57.9828 73.2235 60.618 74.3151 63.3658 74.3151H64.3357C66.3594 74.3231 68.3367 74.9228 70.024 76.0402C71.7099 77.1567 73.0328 78.7414 73.8303 80.5994C74.6657 82.4951 74.9147 84.5974 74.5451 86.6358C74.1752 88.676 73.2026 90.5586 71.7527 92.0408L71.7449 92.0488L71.404 92.3896C70.4407 93.3518 69.6761 94.4949 69.1547 95.7526C68.6334 97.0104 68.365 98.3585 68.365 99.7201C68.365 101.082 68.6334 102.43 69.1547 103.688C69.6761 104.945 70.4403 106.088 71.4036 107.05L71.4044 107.051C72.3666 108.014 73.5092 108.778 74.767 109.3C76.0247 109.821 77.3729 110.09 78.7345 110.09C80.096 110.09 81.4442 109.821 82.7019 109.3C83.9597 108.778 85.1023 108.014 86.0645 107.051L86.4136 106.702C87.8959 105.252 89.7785 104.279 91.8187 103.909C93.8485 103.541 95.9417 103.787 97.8311 104.614C99.7728 105.335 101.455 106.62 102.66 108.305C103.871 109.999 104.545 112.018 104.594 114.099L104.594 114.123V114.634C104.594 117.382 105.686 120.017 107.629 121.96C109.571 123.903 112.207 124.995 114.955 124.995C117.702 124.995 120.338 123.903 122.281 121.96C124.223 120.017 125.315 117.382 125.315 114.634V113.668L125.315 113.664C125.323 111.641 125.923 109.663 127.04 107.976C128.157 106.29 129.741 104.967 131.599 104.17C133.495 103.334 135.597 103.085 137.636 103.455C139.676 103.825 141.559 104.797 143.041 106.247L143.049 106.255L143.39 106.596C144.352 107.559 145.495 108.324 146.753 108.845C148.01 109.367 149.359 109.635 150.72 109.635C152.082 109.635 153.43 109.367 154.688 108.845C155.945 108.324 157.088 107.56 158.05 106.596L158.051 106.596C159.014 105.633 159.778 104.491 160.3 103.233C160.821 101.975 161.09 100.627 161.09 99.2655C161.09 97.904 160.821 96.5558 160.3 95.2981C159.778 94.0403 159.014 92.8977 158.051 91.9355L157.702 91.5864C156.252 90.1041 155.279 88.2215 154.909 86.1813C154.54 84.1427 154.789 82.0402 155.624 80.1444C156.422 78.2866 157.745 76.7021 159.43 75.5857C161.118 74.4683 163.095 73.8686 165.119 73.8605L165.123 73.8605L165.634 73.8605C168.382 73.8605 171.017 72.769 172.96 70.826C174.903 68.883 175.995 66.2478 175.995 63.5C175.995 60.7522 174.903 58.117 172.96 56.174C171.017 54.231 168.382 53.1395 165.634 53.1395H164.668L164.664 53.1395C162.641 53.1314 160.663 52.5317 158.976 51.4143C157.289 50.2968 155.965 48.7104 155.168 46.8502C155.114 46.7254 155.087 46.591 155.087 46.4553V46.2066C154.318 44.3621 154.098 42.3333 154.455 40.3642C154.825 38.324 155.797 36.4414 157.247 34.9592L157.255 34.9513L157.596 34.6104C158.559 33.6482 159.324 32.5051 159.845 31.2474C160.367 29.9896 160.635 28.6415 160.635 27.2799C160.635 25.9184 160.367 24.5702 159.845 23.3125C159.324 22.0547 158.56 20.9121 157.596 19.9499L157.596 19.9491C156.633 18.9858 155.491 18.2216 154.233 17.7002C152.975 17.1788 151.627 16.9105 150.266 16.9105C148.904 16.9105 147.556 17.1788 146.298 17.7002C145.04 18.2216 143.898 18.9858 142.935 19.9491L142.586 20.2982C141.104 21.7481 139.221 22.7207 137.181 23.0906C135.143 23.4602 133.041 23.2112 131.145 22.3758C129.287 21.5783 127.702 20.2554 126.586 18.5695C125.468 16.8822 124.869 14.9049 124.861 12.8811L124.861 12.8771V12.3658C124.861 9.61801 123.769 6.98277 121.826 5.03979C119.883 3.09682 117.248 2.00526 114.5 2.00526ZM105.756 3.62186C108.075 1.30282 111.22 0 114.5 0C117.78 0 120.925 1.30282 123.244 3.62186C125.563 5.94089 126.866 9.08618 126.866 12.3658L126.866 12.8731C126.866 12.8738 126.866 12.8744 126.866 12.875C126.873 14.5071 127.356 16.1016 128.258 17.4623C129.159 18.8236 130.439 19.8916 131.94 20.5348L131.95 20.539C133.48 21.2144 135.178 21.4159 136.824 21.1175C138.468 20.8194 139.985 20.036 141.18 18.8683C141.182 18.8671 141.183 18.8659 141.184 18.8647L141.517 18.5319C141.517 18.5318 141.517 18.5321 141.517 18.5319C142.665 17.3824 144.029 16.47 145.53 15.8478C147.031 15.2255 148.64 14.9052 150.266 14.9052C151.891 14.9052 153.5 15.2255 155.001 15.8478C156.502 16.47 157.865 17.3818 159.014 18.5311C160.163 19.6796 161.075 21.0434 161.698 22.5446C162.32 24.0458 162.64 25.6549 162.64 27.2799C162.64 28.905 162.32 30.5141 161.698 32.0153C161.075 33.5165 160.163 34.8803 159.014 36.0287L158.681 36.3614C158.68 36.3627 158.678 36.364 158.677 36.3653C157.509 37.5605 156.726 39.0778 156.428 40.722C156.13 42.3679 156.331 44.0655 157.006 45.5959C157.063 45.7234 157.092 45.8613 157.092 46.0007V46.2434C157.742 47.6651 158.778 48.8778 160.083 49.7424C161.444 50.6436 163.038 51.1273 164.67 51.1342H165.634C168.914 51.1342 172.059 52.437 174.378 54.7561C176.697 57.0751 178 60.2204 178 63.5C178 66.7796 176.697 69.9249 174.378 72.2439C172.059 74.563 168.914 75.8658 165.634 75.8658L165.127 75.8658C165.126 75.8658 165.126 75.8658 165.125 75.8658C163.493 75.8727 161.898 76.3564 160.538 77.2576C159.176 78.1591 158.108 79.439 157.465 80.9397L157.461 80.9496C156.786 82.48 156.584 84.1776 156.882 85.8235C157.181 87.4676 157.964 88.9848 159.131 90.18C159.133 90.1814 159.134 90.1827 159.135 90.1841L159.468 90.5167C159.468 90.5169 159.468 90.5166 159.468 90.5167C160.618 91.6651 161.53 93.0292 162.152 94.5302C162.774 96.0314 163.095 97.6405 163.095 99.2655C163.095 100.891 162.774 102.5 162.152 104.001C161.53 105.502 160.618 106.866 159.468 108.014C158.32 109.163 156.956 110.075 155.455 110.698C153.954 111.32 152.345 111.64 150.72 111.64C149.095 111.64 147.486 111.32 145.985 110.698C144.484 110.075 143.12 109.163 141.972 108.014C141.972 108.014 141.972 108.014 141.972 108.014L141.639 107.681C141.637 107.679 141.636 107.678 141.635 107.677C140.439 106.509 138.922 105.726 137.278 105.428C135.632 105.13 133.934 105.331 132.404 106.006L132.394 106.011C130.894 106.654 129.614 107.722 128.712 109.083C127.811 110.444 127.327 112.038 127.32 113.67C127.32 113.671 127.32 113.672 127.32 113.672L127.32 114.634C127.32 117.914 126.017 121.059 123.698 123.378C121.379 125.697 118.234 127 114.955 127C111.675 127 108.53 125.697 106.211 123.378C103.892 121.059 102.589 117.914 102.589 114.634V114.135C102.547 112.459 102.004 110.835 101.029 109.472C100.052 108.105 98.6858 107.065 97.1092 106.485C97.0985 106.481 97.0879 106.477 97.0774 106.472C97.0684 106.469 97.0594 106.465 97.0504 106.461C95.5201 105.786 93.8224 105.584 92.1765 105.882C90.5323 106.181 89.015 106.964 87.8198 108.132C87.8185 108.133 87.8172 108.134 87.8159 108.135L87.4833 108.468C86.3348 109.618 84.971 110.53 83.4698 111.152C81.9686 111.774 80.3595 112.095 78.7345 112.095C77.1094 112.095 75.5003 111.774 73.9991 111.152C72.4979 110.53 71.1341 109.618 69.9857 108.468C68.8363 107.32 67.9245 105.956 67.3023 104.455C66.68 102.954 66.3597 101.345 66.3597 99.7201C66.3597 98.095 66.68 96.4859 67.3023 94.9847C67.9246 93.4837 68.8365 92.12 69.9861 90.9717C69.9862 90.9715 69.9859 90.9718 69.9861 90.9717L70.3192 90.6386C70.3204 90.6374 70.3217 90.6361 70.3229 90.6348C71.4906 89.4396 72.2739 87.9222 72.572 86.278C72.8705 84.6321 72.669 82.9345 71.9936 81.4041L71.9892 81.3943C71.346 79.8935 70.2781 78.6136 68.9168 77.7121C67.5561 76.811 65.9616 76.3272 64.3295 76.3203C64.3289 76.3203 64.3283 76.3203 64.3277 76.3203L63.3658 76.3203C60.0862 76.3203 56.9409 75.0175 54.6219 72.6985C52.3028 70.3794 51 67.2341 51 63.9545C51 60.6749 52.3028 57.5296 54.6219 55.2106C56.9409 52.8916 60.0862 51.5887 63.3658 51.5887H63.8651C65.5405 51.5473 67.165 51.0039 68.5283 50.0288C69.8947 49.0516 70.9354 47.6858 71.5153 46.1092C71.5226 46.0894 71.5305 46.0698 71.539 46.0504C72.2145 44.5201 72.4159 42.8224 72.1175 41.1765C71.8194 39.5323 71.0361 38.015 69.8684 36.8197L69.5319 36.4833C68.3822 35.3348 67.4701 33.971 66.8478 32.4698C66.2255 30.9686 65.9052 29.3595 65.9052 27.7345C65.9052 26.1094 66.2255 24.5003 66.8478 22.9991C67.4701 21.4979 68.3822 20.1341 69.5319 18.9857C70.6802 17.8363 72.0437 16.9245 73.5446 16.3023C75.0458 15.68 76.6549 15.3597 78.2799 15.3597C79.905 15.3597 81.5141 15.68 83.0153 16.3023C84.5163 16.9246 85.88 17.8365 87.0283 18.9861C87.0285 18.9862 87.0282 18.9859 87.0283 18.9861L87.3653 19.323C88.5605 20.4906 90.0778 21.2739 91.722 21.572C93.3679 21.8705 95.0655 21.669 96.5959 20.9936C96.7234 20.9373 96.8613 20.9082 97.0007 20.9082H97.2434C98.6651 20.2582 99.8778 19.2224 100.742 17.9168C101.644 16.5561 102.127 14.9616 102.134 13.3295V12.3658C102.134 9.08618 103.437 5.94089 105.756 3.62186Z" fill="black"/>
</svg>

<svg width="178" height="153" fill="none" xmlns="http://www.w3.org/2000/svg"><circle cx="60" cy="93" r="59.5" fill="#F90" stroke="#F90"/><path fill-rule="evenodd" clip-rule="evenodd" d="M114 47c-8.837 0-16 7.163-16 16s7.163 16 16 16 16-7.163 16-16-7.163-16-16-16zM96 63c0-9.941 8.059-18 18-18s18 8.059 18 18-8.059 18-18 18-18-8.059-18-18z" fill="#000"/><path fill-rule="evenodd" clip-rule="evenodd" d="M114.5 2.005a10.36 10.36 0 00-10.361 10.36v.971a10.372 10.372 0 01-6.289 9.496c-.125.054-.259.081-.395.081h-.248a10.377 10.377 0 01-11.248-2.16l-.008-.008-.34-.341a10.364 10.364 0 00-11.299-2.25 10.36 10.36 0 00-3.362 2.25 10.361 10.361 0 000 14.66l.348.35a10.377 10.377 0 012.088 11.417 10.377 10.377 0 01-9.485 6.763h-.535a10.36 10.36 0 000 20.721h.97A10.377 10.377 0 0173.83 80.6a10.378 10.378 0 01-2.077 11.442l-.008.008-.341.34a10.364 10.364 0 00-2.25 11.299 10.364 10.364 0 002.25 3.362v.001a10.375 10.375 0 007.33 3.039 10.368 10.368 0 007.33-3.039l.35-.349a10.378 10.378 0 0111.417-2.088 10.377 10.377 0 016.763 9.485v.535a10.36 10.36 0 0020.721 0v-.97a10.38 10.38 0 016.284-9.494 10.371 10.371 0 0111.442 2.077l.008.008.341.341a10.356 10.356 0 0011.298 2.249 10.347 10.347 0 003.362-2.249h.001a10.37 10.37 0 002.249-11.298 10.375 10.375 0 00-2.249-3.362l-.349-.35a10.378 10.378 0 01-2.078-11.442 10.38 10.38 0 019.495-6.284h.515a10.36 10.36 0 100-20.72h-.97a10.378 10.378 0 01-9.496-6.29.994.994 0 01-.081-.395v-.248a10.373 10.373 0 012.16-11.248l.008-.008.341-.34a10.361 10.361 0 000-14.661 10.368 10.368 0 00-7.33-3.04 10.362 10.362 0 00-7.331 3.04l-.349.348a10.377 10.377 0 01-11.441 2.078 10.375 10.375 0 01-6.284-9.495v-.515A10.36 10.36 0 00114.5 2.006zm-8.744 1.617a12.365 12.365 0 0121.11 8.744v.509a8.366 8.366 0 005.074 7.66l.01.004a8.372 8.372 0 009.23-1.67l.004-.004.333-.333a12.363 12.363 0 0117.497 0 12.37 12.37 0 010 17.498l-.333.331-.004.004a8.368 8.368 0 00-1.671 9.23.991.991 0 01.086.406v.242a8.375 8.375 0 007.578 4.891h.964a12.365 12.365 0 110 24.732h-.509a8.37 8.37 0 00-7.66 5.074l-.004.01a8.38 8.38 0 00-.579 4.873 8.382 8.382 0 002.253 4.361l.333.333a12.358 12.358 0 013.627 8.749 12.37 12.37 0 01-3.627 8.748 12.369 12.369 0 01-17.496 0l-.333-.333-.004-.004a8.373 8.373 0 00-9.231-1.671l-.01.005a8.378 8.378 0 00-5.074 7.659v.964a12.365 12.365 0 11-24.731 0v-.499a8.374 8.374 0 00-5.539-7.674 8.379 8.379 0 00-4.873-.579 8.377 8.377 0 00-4.357 2.25l-.004.003-.333.333a12.357 12.357 0 01-8.749 3.627 12.372 12.372 0 01-8.748-3.627 12.363 12.363 0 01-2.684-13.483 12.365 12.365 0 012.684-4.013l.333-.333a8.371 8.371 0 001.674-9.234l-.004-.01a8.372 8.372 0 00-7.66-5.075h-.963a12.366 12.366 0 110-24.731h.5a8.371 8.371 0 007.673-5.539 8.371 8.371 0 00-1.67-9.23l-.337-.337a12.367 12.367 0 010-17.497 12.366 12.366 0 0117.496 0l.337.337a8.372 8.372 0 009.23 1.67c.128-.056.266-.085.406-.085h.242a8.368 8.368 0 004.891-7.579v-.963c0-3.28 1.303-6.425 3.622-8.744z" fill="#000"/></svg>
